X:1
T:SOMEBODY'S PRAYIN'
C:John Elliott
Z:All Rights Reserved
L:1/8
Q:1/4=120
M:4/4
K:G
V:1 treble nm="MusicXML Part"
%%MIDI program 0
V:1
|:"G" z DDD"C" E"G" G2 z |"C" c2"G" B2"C" AG z2 |"G" z DDD"C" EG-GE |"D" D4 z4 | %4
w: Some bo dy's pray in'|I can feel it|Some bo dy's pray ing _ for|me|
"G" BddB"C" e"G"d dA/B/ |"B7" cBcB"Em" BB"Cm/Eb" G2 |"G/B" z BBA"C" G4 |"G/B" z BdB"C" G4 | %8
w: Might y hands are guid ing me to pro|tect me from what I can't see|Lord I be lieve|Lord, I be lieve|
"C/D" z GGG EDDE |"G""_FINE 2nd Time" G4 z4 | z2 z2 z2 z2 |"G" z DDD"C" E"G" G2 z | %12
w: Some bod y's pray in' _ for|me||An gels are wat ching|
"C" c2"G" B2"C" AG z2 |"G" z DDD"C" EGGE |"D" D4 z GGA |"G" BddB"C" e"G"d dA/B/ | %16
w: I can feel them|An gels are wat ching ov er|me There's man y|miles a head till I get home still I'm|
"B7" cBcB"Em" BB"Cm/Eb" G2 |"G/B" z BBA"C" G4 |"G/B" z BdB"C" G4 |"C/D" z GGG EDDE |"G" G4 z4 | %21
w: safe ly kept be fore your throne|Lord I be lieve|Lord, I be lieve|An gels are wat ching ov er|me|
 z2 z2 z2 DE |"Am" AAAB"D7" cB- BG/A/ |"G" BBBc dddB |"C" eddB"G" cBAG |"D7" AAAB c-cBB | %26
w: Well I've|walked thru bar ren dark ness _ Where my|pil low was a stone And I've been|thru the dark est cav erns where no|light had ev er shown _ Still I|
"Em" AG- GG/G/"C" G/A/G/-G/ GA |"B7" B2 AA"Em" G2 DD |"C" EGGE EDGG |"C/D" AAAG A4 :| %30
w: went on _ cuz there was some one _ who was|down on their knees Lord I|thank you for those peo ple pray ing|all the time for me|

